X: 10199
T: Diplodocus, The
R: jig
M: 6/8
K: Amixolydian
|:B|cAA edB|cAA ABc|def gfg|aee fed|
ceA BAG|EAA AGE|DEF FGA|BAA A2:|
|:z|efe e2d|cAB AGE|gag gef|gag fed|
efd eBd|cAB AGE|DEF FGA|BAA A2:|
|:z|aAA Aaf|~g3 efg|fdd def|~g3 efg|
aAA Aaf|~g3 efg|fed efd|cAA A2:|

